svgs/duotone/clipboard-medical.svg

<svg xmlns="http://www.w3.org/2000/svg" viewBox="0 0 384 512"><!--! Font Awesome Pro 6.6.0 by @fontawesome - https://fontawesome.com License - https://fontawesome.com/license (Commercial License) Copyright 2024 Fonticons, Inc. --><path class="fa-secondary" style="fill:var(--fa-secondary-color,inherit);opacity:var(--fa-secondary-opacity,.4);" d="M0 128L0 448c0 35.3 28.7 64 64 64l256 0c35.3 0 64-28.7 64-64l0-320c0-35.3-28.7-64-64-64l-49.6 0c.2 .8 .3 1.6 .4 2.3C290.1 72.6 304 90.7 304 112l0 24c0 13.3-10.7 24-24 24l-88 0-88 0c-13.3 0-24-10.7-24-24l0-24c0-21.3 13.9-39.4 33.2-45.7c.1-.8 .3-1.6 .4-2.3L64 64C28.7 64 0 92.7 0 128zM96 304c0-8.8 7.2-16 16-16l48 0 0-48c0-8.8 7.2-16 16-16l32 0c8.8 0 16 7.2 16 16l0 48 48 0c8.8 0 16 7.2 16 16l0 32c0 8.8-7.2 16-16 16l-48 0 0 48c0 8.8-7.2 16-16 16l-32 0c-8.8 0-16-7.2-16-16l0-48-48 0c-8.8 0-16-7.2-16-16l0-32z"/><path class="fa-primary" style="fill:var(--fa-primary-color,inherit);opacity:var(--fa-primary-opacity,1);" d="M113.2 66.3C119.6 28.7 152.5 0 192 0s72.4 28.7 78.8 66.3C290.1 72.6 304 90.7 304 112l0 24c0 13.3-10.7 24-24 24l-88 0-88 0c-13.3 0-24-10.7-24-24l0-24c0-21.3 13.9-39.4 33.2-45.7zM216 80a24 24 0 1 0 -48 0 24 24 0 1 0 48 0zM160 240c0-8.8 7.2-16 16-16l32 0c8.8 0 16 7.2 16 16l0 48 48 0c8.8 0 16 7.2 16 16l0 32c0 8.8-7.2 16-16 16l-48 0 0 48c0 8.8-7.2 16-16 16l-32 0c-8.8 0-16-7.2-16-16l0-48-48 0c-8.8 0-16-7.2-16-16l0-32c0-8.8 7.2-16 16-16l48 0 0-48z"/></svg>

<svg xmlns="http://www.w3.org/2000/svg" viewBox="0 0 384 512"><!--! Font Awesome Pro 6.4.2 by @fontawesome - https://fontawesome.com License - https://fontawesome.com/license (Commercial License) Copyright 2023 Fonticons, Inc. --><path class="fa-primary" style="fill:var(--fa-primary-color,inherit);opacity:var(--fa-primary-opacity,1);" d="M113.2 66.3C119.6 28.7 152.5 0 192 0s72.4 28.7 78.8 66.3C290.1 72.6 304 90.7 304 112v24c0 13.3-10.7 24-24 24H192 104c-13.3 0-24-10.7-24-24V112c0-21.3 13.9-39.4 33.2-45.7zM216 80a24 24 0 1 0 -48 0 24 24 0 1 0 48 0zM160 240c0-8.8 7.2-16 16-16h32c8.8 0 16 7.2 16 16v48h48c8.8 0 16 7.2 16 16v32c0 8.8-7.2 16-16 16H224v48c0 8.8-7.2 16-16 16H176c-8.8 0-16-7.2-16-16V352H112c-8.8 0-16-7.2-16-16V304c0-8.8 7.2-16 16-16h48V240z"/><path class="fa-secondary" style="fill:var(--fa-secondary-color,inherit);opacity:var(--fa-secondary-opacity,.4);" d="M113.2 66.3c.1-.8 .3-1.6 .4-2.3H64C28.7 64 0 92.7 0 128V448c0 35.3 28.7 64 64 64H320c35.3 0 64-28.7 64-64V128c0-35.3-28.7-64-64-64H270.4c.2 .8 .3 1.6 .4 2.3C290.1 72.6 304 90.7 304 112v24c0 13.3-10.7 24-24 24H192 104c-13.3 0-24-10.7-24-24V112c0-21.3 13.9-39.4 33.2-45.7zM160 240c0-8.8 7.2-16 16-16h32c8.8 0 16 7.2 16 16v48h48c8.8 0 16 7.2 16 16v32c0 8.8-7.2 16-16 16H224v48c0 8.8-7.2 16-16 16H176c-8.8 0-16-7.2-16-16V352H112c-8.8 0-16-7.2-16-16V304c0-8.8 7.2-16 16-16h48V240z"/></svg>
